X: 7
T: The Seven Step
R: barndance
M: 4/4
L: 1/8
K: Gmaj
(3DEF |G2. G2. G2. G2. | G>AB>G (3EFE D2 | B2. B2. B2. B2. | B>cd>B A2 G2 ||
B>c (3dcB A2 G2 | G>A (3BAG E2 D2 | D>EG>A B>d (3ddd | B2 A2 A4 |
B>cd>B G2 G2 | G>AB>G E2 E2 | D>EG>A B<dd>B | A2 G2 G2 |]


Tune 1307	Setting 26735

